X:4
T:Jetstream (2)
C:Jackie Tolliday-Bailey
M:4/4
L:1/8
K:Em
E2 EF G2B2 | cBAc BAGF | E2 EF G2B2 | cBAc B4 |
e2 BB G2 B2 | cBAc BAGF | E2 EF G2 c2 | BAGF E4 ||
e2 ef g2 a2 | bagf g2 ee | d2 de f2 g2 | abaf d4 |
E2 EF G2 A2 | BcBA BG E2 | E2 EF G2 c2 | BAGF E4 ||

